X:191
T:In the dead of the Night TS.191
M:C
L:1/8
Q:1/2=55
S:Thomas Sands’ MS,1810,Lincolnshire
R:air
O:England;Lincolnshire
Z:vmp.Ruairidh Greig, 2011
K:G
D>F|G2B>Gd2B>G|A>B c/A/G/F/G2zB|A>GFG (A<d) (^c/B/A/G/)|
F>G (A/G/F/E/)D2B>c|d2B>G G>E c>d|e>c A>G Bc/>B/ A E/F/|GEFG AB/>G/ “s-q in ms”A>B|
cABc (d<g)ec|(Bd) (DF)G2zG|(B>G)(d>B) (g>d)(e>c)|(B>d) DFG2|]

